X:1
T:Lulu Walls
M:4/4
L:1/8
K:G
 d4| ed dd B2A-A| GG GG G3 G| BB B3/2 B/2 BB dB| A6|d-d| ed dd B2 G2|\
 G3/2 G/2 GG G2 G2| BB dd F2 BA| G6| AB| cc cc c2 Gc| BB BA G2 GB|\
 dd d3/2 d/2 ed BG| A6| d3/2 d/2| ed dd B2 AG| EG GG G2 GA| Bd BA GE FA|\
 G8| z4||
